icons/svg/checkmark-starburst.svg

<svg width="24" height="24" viewBox="0 0 24 24" fill="none" xmlns="http://www.w3.org/2000/svg">
<path d="M7.07205 4.06868C7.53503 2.98296 8.7812 2.46678 9.87629 2.90712L11.1908 3.43571C11.7101 3.6445 12.2899 3.6445 12.8092 3.43571L14.1237 2.90712C15.2188 2.46678 16.465 2.98296 16.928 4.06867L17.4837 5.37197C17.7032 5.88676 18.1132 6.29677 18.628 6.51629L19.9313 7.07205C21.017 7.53503 21.5332 8.7812 21.0929 9.87629L20.5643 11.1908C20.3555 11.7101 20.3555 12.2899 20.5643 12.8092L21.0929 14.1237C21.5332 15.2188 21.017 16.465 19.9313 16.928L18.628 17.4837C18.1132 17.7032 17.7032 18.1132 17.4837 18.628L16.928 19.9313C16.465 21.017 15.2188 21.5332 14.1237 21.0929L12.8092 20.5643C12.2899 20.3555 11.7101 20.3555 11.1908 20.5643L9.87629 21.0929C8.7812 21.5332 7.53503 21.017 7.07205 19.9313L6.51629 18.628C6.29677 18.1132 5.88676 17.7032 5.37197 17.4837L4.06868 16.928C2.98296 16.465 2.46678 15.2188 2.90712 14.1237L3.43571 12.8092C3.6445 12.2899 3.6445 11.7101 3.43571 11.1908L2.90712 9.87629C2.46678 8.7812 2.98296 7.53503 4.06867 7.07205L5.37197 6.51629C5.88676 6.29677 6.29677 5.88676 6.51629 5.37197L7.07205 4.06868Z" stroke="currentColor" stroke-width="1.5" stroke-linecap="round" stroke-linejoin="round"/>
<path d="M15.8985 9.5L10.8985 14.5L8.10154 11.7074" stroke="currentColor" stroke-width="1.5" stroke-linecap="round" stroke-linejoin="round"/>
</svg>

<svg xmlns="http://www.w3.org/2000/svg" width="24" height="24" fill="none" viewBox="0 0 24 24"><path stroke="currentColor" stroke-linecap="round" stroke-linejoin="round" stroke-width="1.5" d="M7.072 4.069a2.17 2.17 0 0 1 2.804-1.162l1.315.529c.52.208 1.099.208 1.618 0l1.315-.529a2.17 2.17 0 0 1 2.804 1.162l.556 1.303c.22.515.63.925 1.144 1.144l1.303.556a2.17 2.17 0 0 1 1.162 2.804l-.529 1.315a2.17 2.17 0 0 0 0 1.618l.529 1.315a2.17 2.17 0 0 1-1.162 2.804l-1.303.556a2.17 2.17 0 0 0-1.144 1.144l-.556 1.303a2.17 2.17 0 0 1-2.804 1.162l-1.315-.529a2.17 2.17 0 0 0-1.618 0l-1.315.529a2.17 2.17 0 0 1-2.804-1.162l-.556-1.303a2.17 2.17 0 0 0-1.144-1.144l-1.303-.556a2.17 2.17 0 0 1-1.162-2.804l.529-1.315a2.17 2.17 0 0 0 0-1.618l-.529-1.315A2.17 2.17 0 0 1 4.07 7.072l1.303-.556a2.17 2.17 0 0 0 1.144-1.144z"/><path stroke="currentColor" stroke-linecap="round" stroke-linejoin="round" stroke-width="1.5" d="m15.899 9.5-5 5-2.797-2.793"/></svg>
